packages/core/src/svgs/tokens/mono/INS.svg

<svg width="24" height="24" viewBox="0 0 24 24" fill="none" xmlns="http://www.w3.org/2000/svg">
<path d="M2.0918 21.2729V21.9993H2.82314L5.1807 19.4546V18.7275H4.44937L2.0918 21.2729Z" fill="white"/>
<path d="M8.95435 21.9992L10.1149 19.4339V18.7268H9.35997L8.19873 21.2928V21.9999L8.95435 21.9992Z" fill="white"/>
<path d="M21.9985 16.0353V15.2839L19.5296 13.9578H18.8188V14.7077L21.2879 16.0347L21.9985 16.0353Z" fill="white"/>
<path d="M21.9985 8.71553V7.96484H21.2879L18.8188 9.2918V10.0417H19.5296L21.9985 8.71553Z" fill="white"/>
<path d="M8.19873 2V2.70706L9.35997 5.27175H10.1149V4.56468L8.95435 2H8.19873Z" fill="white"/>
<path d="M21.9084 2.72706V2H21.1763L18.8196 4.5454V5.27175H19.5508L21.9084 2.72706Z" fill="white"/>
<path d="M14.8545 9.14233H14.1404V9.85658H14.8545V9.14233Z" fill="white"/>
<path d="M13.8855 18.7275V19.4346L15.046 21.9993H15.8016V21.2922L14.6404 18.7282L13.8855 18.7275Z" fill="white"/>
<path d="M15.8009 2H15.046L13.8855 4.5654V5.27245H14.6404L15.8009 2.70706V2Z" fill="white"/>
<path d="M21.9084 21.9993V21.2729L19.5509 18.7275H18.8181V19.4546L21.1757 21.9993H21.9084Z" fill="white"/>
<path d="M2.00146 15.2848V16.0347H2.71209L5.18107 14.7084V13.9585H4.47044L2.00146 15.2848Z" fill="white"/>
<path d="M2.0918 2V2.72706L4.44866 5.27175H5.1807V4.5454L2.82314 2H2.0918Z" fill="white"/>
<path d="M9.14111 14.8558H9.85519V14.1416H9.14111V14.8558Z" fill="white"/>
<path d="M2.00146 7.96484V8.7147L4.47044 10.0417H5.18107V9.2918L2.71209 7.96484H2.00146Z" fill="white"/>
<path d="M9.14111 9.85658H9.85519V9.14233H9.14111V9.85658Z" fill="white"/>
<path d="M14.8545 14.1416H14.1404V14.8558H14.8545V14.1416Z" fill="white"/>
</svg>

<svg xmlns="http://www.w3.org/2000/svg" width="24" height="24" fill="none" viewBox="0 0 24 24">
    <path fill="#fff" d="M2.092 21.273v.726h.731l2.358-2.544v-.727h-.732zM8.954 22l1.16-2.566v-.707H9.36l-1.161 2.566V22zm13.045-5.965v-.751l-2.47-1.326h-.71v.75l2.469 1.327zm0-7.319v-.751h-.711l-2.47 1.327v.75h.712zM8.199 2v.707L9.36 5.272h.755v-.707L8.955 2zm13.709.727V2h-.732L18.82 4.545v.727h.73zm-7.053 6.415h-.715v.715h.714zm-.969 9.586v.707l1.16 2.564h.756v-.707l-1.162-2.564zM15.8 2h-.754l-1.16 2.565v.707h.754l1.16-2.565zm6.108 20v-.727l-2.357-2.546h-.733v.728l2.358 2.544zM2.001 15.285v.75h.711l2.47-1.327v-.75H4.47zM2.092 2v.727l2.357 2.545h.732v-.727L2.823 2zm7.049 12.856h.714v-.714h-.714zm-7.14-6.891v.75l2.47 1.327h.71v-.75L2.712 7.965zm7.14 1.892h.714v-.715h-.714zm5.714 4.285h-.715v.714h.714z"/>
</svg>
